assets/illustrations/multisize/16/multiple.svg

<?xml version="1.0" encoding="utf-8"?>
<!-- Generator: Adobe Illustrator 21.1.0, SVG Export Plug-In . SVG Version: 6.00 Build 0)  -->
<svg version="1.1" xmlns="http://www.w3.org/2000/svg" xmlns:xlink="http://www.w3.org/1999/xlink" x="0px" y="0px"
	 viewBox="0 0 16 16" enable-background="new 0 0 16 16" xml:space="preserve">
<g id="TEMPLATE" display="none">
	<g display="inline">
		<path fill="#D0D0D0" d="M16,0v16H0V0H16 M17-1h-1H0h-1v1v16v1h1h16h1v-1V0V-1L17-1z"/>
	</g>
</g>
<g id="ICONS">
	<g>
		<g>
			<path fill="#FFFFFF" d="M11,0h-1H4v2H2v14h10v-2h2V4V3L11,0z"/>
		</g>
		<g>
			<path fill="#949494" d="M11,0h-1H4v2H2v14h10v-2h2V4V3L11,0z M11,1.5L12.5,3H11V1.5z M11,15H3V3h1v11h7V15z M13,13h-1h-1H5V3V2V1
				h5v2v1h1h2V13z"/>
		</g>
	</g>
</g>
</svg>

<svg id="27e11ce9-81fd-409d-8a02-e53f83ca466f" data-name="ICONS" xmlns="http://www.w3.org/2000/svg" viewBox="0 0 16 16"><title>FileTypeIcons_Master_All_NEW</title><path d="M11,0H4V2H2V16H12V14h2V3Z" fill="#fff"/><path d="M11,0H4V2H2V16H12V14h2V3Zm0,1.5L12.5,3H11ZM11,15H3V3H4V14h7Zm2-2H5V1h5V4h3Z" fill="#949494"/></svg>
